X: 41212
T: Trollpolska
R: waltz
M: 3/4
K: Dminor
|:A,2 D>E F>G|A2 ^c2 d>e|f>g f>e d2|c>d c>B A2|
B>c B>A G>B|A>B A>G F2|G>F E>D ^C<E|[D6A6]:|
|:a>g f>e f>a|g>a g>e c2|f>e d>^c d>e|f2 e>c A2|
d>c B>A B>d|c>d c>A F2|G>F E>D ^C<E|[D6A6]:|

